packages/components/src/telekom/icons/weather/moon-rain/default.svg

<?xml version="1.0" encoding="UTF-8"?>
<svg width="24px" height="24px" viewBox="0 0 24 24" version="1.1" xmlns="http://www.w3.org/2000/svg" xmlns:xlink="http://www.w3.org/1999/xlink">
    <title>icon/weather/moon-rain/default</title>
    <g id="icon/weather/moon-rain/default" stroke="none" stroke-width="1" fill="none" fill-rule="evenodd">
        <path d="M8.9652,18.1956 C9.0513,18.1165 9.18241875,18.1712312 9.19991875,18.2743117 L9.2,18.3212 L8.7208,21.3844 C8.616,22.0536 7.9884,22.5116 7.3188,22.4068 C6.34513333,22.2546167 5.95446875,21.0881493 6.59074685,20.3796894 L6.6796,20.29 L8.9652,18.1956 Z M7.7152,14.036 C7.8013,13.95725 7.93241875,14.0117187 7.94991875,14.1149961 L7.95,14.162 L7.4204,17.5484 L7.37470918,17.7290201 C7.18451094,18.3599078 6.556925,18.771025 5.8868,18.6664 C5.07457778,18.5390889 4.63591481,17.767058 4.78175336,17.0640066 L4.8136,16.9408 L4.860064,16.8139744 C4.913248,16.6886656 4.98688,16.5684544 5.083552,16.4582656 L5.188,16.3516 L7.7152,14.036 Z M12.6492,12.7316 C12.7353,12.6525 12.8661125,12.7072312 12.8838039,12.8105797 L12.884,12.8576 L12.2684,16.7932 C12.1372,17.6316 11.3512,18.2048 10.5128,18.0736 C9.28622857,17.8815143 8.79832755,16.4040082 9.61613089,15.5186419 L9.7124,15.4228 L12.6492,12.7316 Z M10.0996,5.9812 C12.4528,5.9812 14.528,7.4328 15.342,9.62 C16.722,10.3504 17.6,11.792 17.6,13.3636 C17.6,15.6288121 15.8130307,17.4844242 13.5750876,17.5948055 L13.364,17.6 L13.2788,17.6 C13.3321333,17.4690667 13.3771111,17.3335111 13.4112444,17.1929778 L13.454,16.9784 L13.546,16.3908 C15.1352,16.2956 16.4,14.9764 16.4,13.3636 C16.4,12.2400889 15.772763,11.2089864 14.7865158,10.6837529 L14.6088,10.5964 L14.366,10.4868 L14.2844,10.2328 C13.6988,8.4072 12.0168,7.1808 10.0992,7.1808 C9.09415385,7.1808 8.12455385,7.5264 7.34235703,8.159397 L7.1508,8.3236 L6.8888,8.5616 L6.554,8.4472 C6.3108,8.3644 6.0628,8.3224 5.8156,8.3224 C4.61001667,8.3224 3.61970694,9.26247708 3.53927416,10.4480279 L3.534,10.604 L3.558,11.1208 L3.1852,11.2872 C2.2224,11.7176 1.6,12.6752 1.6,13.7272 C1.6,15.0228 2.5268,16.1056 3.7524,16.348 C3.5944,16.7188 3.5328,17.1236 3.5652,17.532 C1.7668,17.1984 0.4,15.6208 0.4,13.7272 C0.4,12.3356 1.1504,11.0584 2.342,10.372 C2.462,8.56 3.9744,7.1228 5.816,7.1228 C6.08,7.1228 6.344,7.1536 6.6036,7.2144 C7.5964,6.4168 8.8252,5.9812 10.0996,5.9812 Z M18.1764,0.5052 C19.066,0.2716 19.9616,0.2756 20.7976,0.4748 C18.8728,1.4004 17.8092,3.586 18.372,5.7288 C19.004,8.1352 21.448,9.58 23.8548,8.99 C23.1496,9.9236 22.1408,10.6384 20.9212,10.9588 C20.0092,11.1984 19.0908,11.1888 18.2364,10.974 C17.8052,10.0952 17.146,9.3336 16.298,8.79 C15.8132,7.7024 15.0724,6.792 14.1612,6.114 C13.9784,3.5704 15.62,1.1764 18.1764,0.5052 Z" id="Shape" fill="#262626" fill-rule="nonzero"></path>
    </g>
</svg>

<svg width="24" height="24" xmlns="http://www.w3.org/2000/svg"><path d="M8.965 18.196a.141.141 0 01.235.078v.047l-.48 3.063a1.227 1.227 0 01-1.401 1.023c-.974-.152-1.365-1.319-.728-2.027l.089-.09 2.285-2.094zm-1.25-4.16a.142.142 0 01.235.079v.047l-.53 3.386-.045.181a1.339 1.339 0 01-1.488.937c-.812-.127-1.251-.899-1.105-1.602l.032-.123.046-.127a1.32 1.32 0 01.224-.356l.104-.106 2.527-2.316zm4.934-1.304a.141.141 0 01.235.079v.047l-.616 3.935a1.536 1.536 0 01-1.755 1.28c-1.227-.191-1.715-1.669-.897-2.554l.096-.096 2.937-2.691zm-2.55-6.75a5.577 5.577 0 015.243 3.638 4.245 4.245 0 012.258 3.744 4.242 4.242 0 01-4.025 4.23l-.211.006h-.085a2.88 2.88 0 00.132-.407l.043-.215.092-.587a3.038 3.038 0 002.854-3.027 3.044 3.044 0 00-1.613-2.68l-.178-.088-.243-.11-.082-.253A4.381 4.381 0 0010.1 7.18a4.377 4.377 0 00-2.757.978l-.191.165-.262.238-.335-.115a2.286 2.286 0 00-.738-.125c-1.206 0-2.196.94-2.277 2.126l-.005.156.024.517-.373.166a2.677 2.677 0 00-1.585 2.44c0 1.296.927 2.379 2.152 2.621-.158.37-.22.776-.187 1.184A3.877 3.877 0 01.4 13.727c0-1.391.75-2.669 1.942-3.355a3.486 3.486 0 014.262-3.158A5.574 5.574 0 0110.1 5.981zM18.177.504a5.38 5.38 0 012.622-.03 4.548 4.548 0 003.057 8.515 5.376 5.376 0 01-2.934 1.969c-.912.24-1.83.23-2.685.015a5.42 5.42 0 00-1.938-2.184 6.748 6.748 0 00-2.137-2.676A5.403 5.403 0 0118.176.505z" fill="#000" fill-rule="evenodd"/></svg>
